packages/foundations/assets/icons/functional/images/file/document_check_32.svg

<svg width="32" height="32" viewBox="0 0 32 32" fill="none" xmlns="http://www.w3.org/2000/svg">
<g clip-path="url(#clip0_185_902)">
<path fill-rule="evenodd" clip-rule="evenodd" d="M16.656 2C17.25 2 17.812 2.25 18.25 2.656L22.344 6.75C22.781 7.188 23 7.75 23 8.344V12.999C23 13.562 22.562 13.999 22 13.999C21.437 13.999 21 13.562 21 12.999V10H16C15.438 10 15 9.562 15 9V4H5.25C5.125 4 5 4.125 5 4.25V27.75C5 27.875 5.125 28 5.25 28H15C15.562 28 16 28.437 16 29C16 29.562 15.562 30 15 30H5.25C4 30 3 29 3 27.75V4.25C3 3 4 2 5.25 2H16.656ZM22 16C25.875 16 29 19.125 29 23C29 26.875 25.875 30 22 30C18.125 30 15 26.875 15 23C15 19.125 18.125 16 22 16ZM22 18C19.25 18 17 20.25 17 23C17 25.75 19.25 28 22 28C24.75 28 27 25.75 27 23C27 20.25 24.75 18 22 18ZM23.8611 21.0139C24.3867 21.0139 24.8313 21.4459 24.8336 21.9826C24.8353 22.24 24.7349 22.4877 24.5544 22.6713L21.9019 25.3413C21.7193 25.5245 21.4713 25.6276 21.2127 25.6276C20.9541 25.6276 20.7061 25.5245 20.5236 25.3413L19.2852 24.103C19.0951 23.913 19 23.6639 19 23.4148C19 22.882 19.433 22.4419 19.973 22.4419C20.2218 22.4419 20.4707 22.5368 20.6606 22.7266L21.2083 23.2743L23.1702 21.3017C23.3565 21.1139 23.6066 21.0139 23.8611 21.0139ZM11.9996 22.2072C12.5616 22.2072 12.9996 22.6442 12.9996 23.2072C12.9996 23.7692 12.5616 24.2072 11.9996 24.2072H7.9996C7.4376 24.2072 6.9996 23.7692 6.9996 23.2072C6.9996 22.6442 7.4376 22.2072 7.9996 22.2072H11.9996ZM12.9996 18.2072C13.5616 18.2072 13.9996 18.6442 13.9996 19.2072C13.9996 19.7692 13.5616 20.2072 12.9996 20.2072H7.9996C7.4376 20.2072 6.9996 19.7692 6.9996 19.2072C6.9996 18.6442 7.4376 18.2072 7.9996 18.2072H12.9996ZM14.9996 14.2072C15.5616 14.2072 15.9996 14.6442 15.9996 15.2072C15.9996 15.7692 15.5616 16.2072 14.9996 16.2072H7.9996C7.4376 16.2072 6.9996 15.7692 6.9996 15.2072C6.9996 14.6442 7.4376 14.2072 7.9996 14.2072H14.9996ZM17 4.219V8H20.781L17 4.219Z" fill="#1A1C1F"/>
</g>
<defs>
<clipPath id="clip0_185_902">
<rect width="32" height="32" fill="white"/>
</clipPath>
</defs>
</svg>

<svg xmlns="http://www.w3.org/2000/svg" width="32" height="32" fill="none"><g clip-path="url(#a)"><path fill="#1A1C1F" fill-rule="evenodd" d="M16.656 2c.594 0 1.156.25 1.594.656l4.094 4.094c.437.438.656 1 .656 1.594v4.655c0 .563-.438 1-1 1s-1-.437-1-1V10h-5c-.562 0-1-.438-1-1V4H5.25a.27.27 0 0 0-.25.25v23.5c0 .125.125.25.25.25H15c.562 0 1 .437 1 1s-.438 1-1 1H5.25C4 30 3 29 3 27.75V4.25C3 3 4 2 5.25 2zM22 16c3.875 0 7 3.125 7 7s-3.125 7-7 7-7-3.125-7-7 3.125-7 7-7m0 2c-2.75 0-5 2.25-5 5s2.25 5 5 5 5-2.25 5-5-2.25-5-5-5m1.861 3.014a.973.973 0 0 1 .693 1.657l-2.652 2.67a.973.973 0 0 1-1.378 0l-1.239-1.238a.974.974 0 0 1 1.375-1.376l.548.547 1.962-1.972a.97.97 0 0 1 .691-.288M12 22.207c.562 0 1 .437 1 1s-.438 1-1 1H8c-.562 0-1-.438-1-1s.438-1 1-1zm1-4c.562 0 1 .437 1 1s-.438 1-1 1H8c-.562 0-1-.438-1-1s.438-1 1-1zm2-4c.562 0 1 .437 1 1s-.438 1-1 1H8c-.562 0-1-.438-1-1s.438-1 1-1zm2-9.988V8h3.781z" clip-rule="evenodd"/></g><defs><clipPath id="a"><path fill="#fff" d="M0 0h32v32H0z"/></clipPath></defs></svg>
